dist/assets/images/advantages-3a.svg

<?xml version="1.0" encoding="UTF-8"?>
<svg width="38px" height="36px" viewBox="0 0 38 36" version="1.1" xmlns="http://www.w3.org/2000/svg" xmlns:xlink="http://www.w3.org/1999/xlink">
    <!-- Generator: Sketch 42 (36781) - http://www.bohemiancoding.com/sketch -->
    <title>Page 1</title>
    <desc>Created with Sketch.</desc>
    <defs>
        <polygon id="path-1" points="-2.27373675e-13 35.8492941 37.4767059 35.8492941 37.4767059 0 -2.27373675e-13 0"></polygon>
        <path d="M12.5739176,16.3743176 C14.9626235,16.3743176 16.8978,14.4377294 16.8978,12.0493765 C16.8978,9.66349412 14.9626235,7.72584706 12.5739176,7.72584706 C10.1848588,7.72584706 8.24968235,9.66349412 8.24968235,12.0493765 C8.24968235,14.4377294 10.1848588,16.3743176 12.5739176,16.3743176 Z" id="path-3"></path>
        <mask id="mask-4" maskContentUnits="userSpaceOnUse" maskUnits="objectBoundingBox" x="0" y="0" width="8.64811765" height="8.64847059" fill="white">
            <use xlink:href="#path-3"></use>
        </mask>
    </defs>
    <g id="LP:-Верстка" stroke="none" stroke-width="1" fill="none" fill-rule="evenodd">
        <g id="Главная-страница-[960]" transform="translate(-501.000000, -1030.000000)">
            <g id="Group-20-Copy-2" transform="translate(130.000000, 980.000000)">
                <g id="Page-1" transform="translate(371.000000, 50.000000)">
                    <path d="M5.84008235,16.5255882 L6.65643529,16.2594706 C8.01137647,15.8193529 9.40408235,16.8033529 10.0693765,18.0940588 L12.5184353,21.8518235 C11.5238471,22.3092353 10.2536118,22.4684118 8.86337647,22.3194706 L5.73984706,16.5661765 C5.77408235,16.5520588 5.80549412,16.5372353 5.84008235,16.5255882 Z" id="Fill-1" fill="#0068FC"></path>
                    <path d="M9.303,21.6490941 C10.077,21.7006235 10.8026471,21.6430941 11.4361765,21.4835647 L9.44241176,18.4175647 C8.86747059,17.3022706 7.773,16.6398 6.87476471,16.9309765 L6.76147059,16.9680353 L9.303,21.6490941 Z M9.85252941,23.0795647 C9.50629412,23.0795647 9.14876471,23.0598 8.78841176,23.0213294 L8.42029412,22.9814471 L4.74405882,16.2113294 L5.47217647,15.9127412 C5.53429412,15.8862706 5.57594118,15.8696824 5.62076471,15.8548588 L6.43782353,15.5887412 C6.72652941,15.4948588 7.02617647,15.4472118 7.32794118,15.4472118 C8.63664706,15.4472118 9.94852941,16.3450941 10.6798235,17.7374471 L13.5566471,22.1513294 L12.8133529,22.4929765 C11.967,22.8819176 10.971,23.0795647 9.85252941,23.0795647 L9.85252941,23.0795647 Z" id="Fill-3" fill="#FFFFFF"></path>
                    <path d="M28.4000824,29.3300471 L22.7120824,29.3300471 L9.50008235,24.4259294 L1.03655294,18.6020471 C1.05949412,18.5741647 1.08102353,18.5469882 1.10714118,18.5212235 L1.71384706,17.9138118 C2.72184706,16.9065176 4.40855294,17.1521647 5.58737647,18.0006353 L10.6220824,20.9004 L12.6020824,22.0520471 L21.0878471,22.0520471 L21.0857294,21.2776941 L15.8247882,21.2904 C14.4765529,21.2508706 13.4145529,19.7491059 13.4526706,18.4001647 C13.4526706,18.4001647 13.4823176,18.0934588 13.4854941,18.0595765 L22.8733765,18.0595765 L26.5033765,21.2505176 L28.4000824,21.2505176" id="Fill-5" fill="#0068FC"></path>
                    <path d="M28.4000824,30.0359294 L22.5853765,30.0359294 L9.1722,25.0576941 L-3.52941181e-05,18.7464 L0.493023529,18.1516941 C0.536788235,18.0987529 0.569964706,18.0595765 0.607729412,18.0221647 L1.21478824,17.4147529 C2.51537647,16.1141647 4.58361176,16.4254588 5.96961176,17.4066353 L12.7923176,21.3461647 L14.1292588,21.3461647 C13.2511412,20.6367529 12.7164353,19.4586353 12.7471412,18.3804 L12.7503176,18.3324 L12.8417294,17.3536941 L23.1398471,17.3536941 L26.7698471,20.5446353 L28.4000824,20.5446353 L28.4000824,21.9564 L26.2372588,21.9564 L22.6072588,18.7654588 L14.1814941,18.7654588 C14.3170235,19.6361647 15.0158471,20.5605176 15.8452588,20.5845176 L21.7898471,20.5700471 L21.7958471,22.7579294 L12.4118471,22.7579294 L10.2673765,21.5106353 L5.17478824,18.5738118 C4.29525882,17.9402824 2.95761176,17.6681647 2.21290588,18.4128706 L2.12855294,18.4975765 L9.82831765,23.7948706 L22.8387882,28.6241647 L28.4000824,28.6241647 L28.4000824,30.0359294 Z" id="Fill-7" fill="#FFFFFF"></path>
                    <polyline id="Fill-10" fill="#FFFFFF" points="37.4766 19.7269059 29.5131882 19.7269059 29.5131882 35.8492588 37.4766 35.8492588"></polyline>
                    <path d="M15.9385412,6.70598824 L15.9385412,2.23492941" id="Fill-12" fill="#FFFFFF"></path>
                    <mask id="mask-2" fill="white">
                        <use xlink:href="#path-1"></use>
                    </mask>
                    <g id="Clip-15"></g>
                    <polygon id="Fill-14" fill="#FFFFFF" mask="url(#mask-2)" points="15.2325882 6.70588235 16.6443529 6.70588235 16.6443529 2.23482353 15.2325882 2.23482353"></polygon>
                    <path d="M8.99724706,6.70598824 L8.99724706,2.23492941" id="Fill-16" fill="#FFFFFF" mask="url(#mask-2)"></path>
                    <polygon id="Fill-17" fill="#FFFFFF" mask="url(#mask-2)" points="8.29129412 6.70588235 9.70305882 6.70588235 9.70305882 2.23482353 8.29129412 2.23482353"></polygon>
                    <path d="M12.4091294,4.47081176 L12.4091294,0.000105882353" id="Fill-18" fill="#FFFFFF" mask="url(#mask-2)"></path>
                    <polygon id="Fill-19" fill="#FFFFFF" mask="url(#mask-2)" points="11.7031765 4.47070588 13.1149412 4.47070588 13.1149412 0 11.7031765 0"></polygon>
                    <g id="Fill-20" mask="url(#mask-2)" stroke-width="2" stroke="#FFFFFF">
                        <use mask="url(#mask-4)" xlink:href="#path-3"></use>
                    </g>
                    <polygon id="Fill-21" fill="#FFFFFF" mask="url(#mask-2)" points="30.8117647 34.4618824 32.1649412 34.4618824 32.1649412 33.0501176 30.8117647 33.0501176"></polygon>
                </g>
            </g>
        </g>
    </g>
</svg>

<svg width="38" height="36" viewBox="0 0 38 36" xmlns="http://www.w3.org/2000/svg" xmlns:xlink="http://www.w3.org/1999/xlink"><title>Page 1</title><defs><path id="b" d="M0 35.85h37.477V0H0z"/><path d="M12.574 16.374a4.324 4.324 0 1 0 0-8.648 4.324 4.324 0 0 0 0 8.648z" id="a"/><mask id="d" x="0" y="0" width="8.648" height="8.648" fill="#fff"><use xlink:href="#a"/></mask></defs><g fill="none" fill-rule="evenodd"><path d="M5.84 16.526l.816-.267c1.355-.44 2.748.544 3.413 1.835l2.45 3.758c-.995.457-2.265.616-3.656.467L5.74 16.566c.034-.014.065-.029.1-.04z" fill="#0068FC"/><path d="M9.303 21.65c.774.05 1.5-.007 2.133-.166l-1.994-3.066c-.575-1.116-1.669-1.778-2.567-1.487l-.114.037 2.542 4.681zm.55 1.43c-.347 0-.704-.02-1.065-.059l-.368-.04-3.676-6.77.728-.298c.062-.027.104-.043.149-.058l.817-.266c.289-.094.588-.142.89-.142 1.309 0 2.62.898 3.352 2.29l2.877 4.414-.744.342c-.846.389-1.842.587-2.96.587z" fill="#FFF"/><path d="M28.4 29.33h-5.688L9.5 24.426l-8.463-5.824a.756.756 0 0 1 .07-.08l.607-.608c1.008-1.007 2.695-.762 3.873.087l5.035 2.9 1.98 1.151h8.486l-.002-.774-5.261.012c-1.348-.04-2.41-1.54-2.372-2.89 0 0 .03-.307.032-.34h9.388l3.63 3.19H28.4" fill="#0068FC"/><path d="M28.4 30.036h-5.815L9.172 25.058 0 18.746l.493-.594c.044-.053.077-.092.115-.13l.607-.607c1.3-1.3 3.369-.99 4.755-.008l6.822 3.94h1.337c-.878-.71-1.413-1.888-1.382-2.967l.003-.048.092-.978H23.14l3.63 3.19h1.63v1.412h-2.163l-3.63-3.19h-8.426c.136.87.835 1.795 1.664 1.819l5.945-.015.006 2.188h-9.384l-2.145-1.247-5.092-2.937c-.88-.634-2.217-.906-2.962-.161l-.084.085 7.7 5.297 13.01 4.83H28.4v1.41zm9.077-10.309h-7.964v16.122h7.964M15.939 6.706V2.235" fill="#FFF"/><mask id="c" fill="#fff"><use xlink:href="#b"/></mask><path fill="#FFF" mask="url(#c)" d="M15.233 6.706h1.411V2.235h-1.411zm-6.236 0V2.235m-.706 4.471h1.412V2.235H8.291zM12.41 4.47V0m-.707 4.47h1.412V0h-1.412z"/><g mask="url(#c)" stroke-width="2" stroke="#FFF"><use mask="url(#d)" xlink:href="#a"/></g><path fill="#FFF" mask="url(#c)" d="M30.812 34.462h1.353V33.05h-1.353z"/></g></svg>
